X: 403
T: The Dark Girl Dressed in Blue
N:"Moderate"
N:"collected by J.O'Neill"
N:Irish title: cailin du.b na eadai.g gorm
B:O'Neill's 403
Z:Transcribed by henrik.norbeck@mailbox.swipnet.se
M:C
L:1/8
K:D
(d/e/) | fdge dc Ad/e/ | fdge d3 d/e/ | ff gg/e/ dd a>B | =cccA G3 (F/G/) |
AABG AD z A | dfec d3 (F/G/) | AA BG/G/ AF DF/G/ | A/B/A/F/ GE D3 ||


